app/content/userGuide/assets/icon_userguide.svg

<svg xmlns="http://www.w3.org/2000/svg" id="Layer_1" viewBox="0 0 886.5 882.4"><style>.st0{fill-rule:evenodd;clip-rule:evenodd;fill:#F44336;} .st1{opacity:0.5;clip-path:url(#SVGID_2_);} .st2{fill:none;stroke:#AF2C1E;stroke-width:3;stroke-linecap:round;stroke-miterlimit:10;} .st3{fill:#AF2C1E;} .st4{fill:none;stroke:#FFFFFF;stroke-width:6.9859;stroke-linecap:round;stroke-miterlimit:10;} .st5{fill:#FFFFFF;} .st6{opacity:0.5;clip-path:url(#SVGID_4_);} .st7{fill-rule:evenodd;clip-rule:evenodd;fill:#4CAF50;} .st8{fill-rule:evenodd;clip-rule:evenodd;fill:#E34026;stroke:#FFFFFF;stroke-width:8;stroke-miterlimit:10;} .st9{fill-rule:evenodd;clip-rule:evenodd;fill:#03A2A3;stroke:#FFFFFF;stroke-width:8;stroke-miterlimit:10;} .st10{fill-rule:evenodd;clip-rule:evenodd;fill:#D0D106;stroke:#FFFFFF;stroke-width:8;stroke-miterlimit:10;} .st11{fill-rule:evenodd;clip-rule:evenodd;fill:#D6015F;stroke:#FFFFFF;stroke-width:8;stroke-miterlimit:10;} .st12{fill-rule:evenodd;clip-rule:evenodd;fill:#60AD21;stroke:#FFFFFF;stroke-width:8;stroke-miterlimit:10;} .st13{fill-rule:evenodd;clip-rule:evenodd;fill:#009FC8;stroke:#FFFFFF;stroke-width:8;stroke-miterlimit:10;} .st14{fill-rule:evenodd;clip-rule:evenodd;fill:#FFFFFF;stroke:#CCCCCC;stroke-width:5;stroke-miterlimit:10;} .st15{fill-rule:evenodd;clip-rule:evenodd;fill:#FFFFFF;stroke:#009FC8;stroke-width:20;stroke-miterlimit:10;} .st16{fill-rule:evenodd;clip-rule:evenodd;fill:#009FC8;} .st17{opacity:0.3;fill:#FFFFFF;} .st18{opacity:0.2;fill:#FFFFFF;} .st19{fill-rule:evenodd;clip-rule:evenodd;fill:#093D8A;} .st20{fill-rule:evenodd;clip-rule:evenodd;fill:#03A2A3;} .st21{opacity:0.2;} .st22{fill:#03A2A3;} .st23{fill:none;} .st24{opacity:0.2;fill:#03A2A3;stroke:#FFFFFF;stroke-miterlimit:10;} .st25{opacity:0.5;fill:#FFFFFF;} .st26{fill-rule:evenodd;clip-rule:evenodd;fill:#D6015F;} .st27{fill:none;stroke:#FFFFFF;stroke-width:4;stroke-miterlimit:10;} .st28{fill:none;stroke:#FFFFFF;stroke-width:5;stroke-linecap:round;stroke-linejoin:round;stroke-miterlimit:10;} .st29{fill-rule:evenodd;clip-rule:evenodd;fill:#D0D106;} .st30{fill-rule:evenodd;clip-rule:evenodd;fill:none;} .st31{fill:#D0D106;} .st32{opacity:0.7;fill:#FFFFFF;} .st33{fill:none;stroke:#FFFFFF;stroke-width:4;stroke-linecap:round;stroke-miterlimit:10;} .st34{fill:none;stroke:#FFFFFF;stroke-width:4;stroke-linecap:round;stroke-miterlimit:10;stroke-dasharray:4.0574,8.1149;} .st35{fill:none;stroke:#FFFFFF;stroke-width:4;stroke-linecap:round;stroke-miterlimit:10;stroke-dasharray:3.9995,7.999;} .st36{opacity:0.5;} .st37{fill:#E1E15F;} .st38{fill-rule:evenodd;clip-rule:evenodd;fill:#E34026;} .st39{fill:none;stroke:#FFFFFF;stroke-width:4;stroke-linecap:round;stroke-miterlimit:10;stroke-dasharray:3.973,7.9461;} .st40{fill:none;stroke:#FFFFFF;stroke-width:4;stroke-linecap:round;stroke-miterlimit:10;stroke-dasharray:4.0208,8.0415;} .st41{fill-rule:evenodd;clip-rule:evenodd;fill:#60AD21;} .st42{opacity:0.5;fill:#60AD21;} .st43{opacity:0.2;fill:none;stroke:#FFFFFF;stroke-width:3;stroke-miterlimit:10;} .st44{fill:#60AD21;} .st45{fill-rule:evenodd;clip-rule:evenodd;fill:#CCCCCC;} .st46{fill-rule:evenodd;clip-rule:evenodd;fill:#FFFFFF;} .st47{fill:none;stroke:#FFFFFF;stroke-width:4;stroke-linecap:round;stroke-miterlimit:10;stroke-dasharray:4.0534,8.1069;} .st48{fill:none;stroke:#FFFFFF;stroke-width:4;stroke-linecap:round;stroke-miterlimit:10;stroke-dasharray:3.924,7.848;} .st49{fill:none;stroke:#FFFFFF;stroke-width:4;stroke-linecap:round;stroke-miterlimit:10;stroke-dasharray:3.9324,7.8649;} .st50{fill:none;stroke:#FFFFFF;stroke-width:4;stroke-linecap:round;stroke-miterlimit:10;stroke-dasharray:3.9814,7.9627;} .st51{opacity:0.3;fill:url(#SVGID_5_);} .st52{opacity:0.76;fill:#FFFFFF;} .st53{opacity:0.9;} .st54{clip-path:url(#SVGID_7_);} .st55{fill-rule:evenodd;clip-rule:evenodd;fill:#E91E63;} .st56{fill-rule:evenodd;clip-rule:evenodd;fill:#9C27B0;} .st57{fill-rule:evenodd;clip-rule:evenodd;fill:#673AB7;} .st58{fill-rule:evenodd;clip-rule:evenodd;fill:#3F51B5;} .st59{fill-rule:evenodd;clip-rule:evenodd;fill:#2196F3;} .st60{fill-rule:evenodd;clip-rule:evenodd;fill:#03A9F4;} .st61{fill-rule:evenodd;clip-rule:evenodd;fill:#00BCD4;} .st62{fill-rule:evenodd;clip-rule:evenodd;fill:#009688;} .st63{fill-rule:evenodd;clip-rule:evenodd;fill:#8BC34A;} .st64{fill-rule:evenodd;clip-rule:evenodd;fill:#CDDC39;} .st65{fill-rule:evenodd;clip-rule:evenodd;fill:#FFEB3B;} .st66{fill-rule:evenodd;clip-rule:evenodd;fill:#FFC107;} .st67{fill-rule:evenodd;clip-rule:evenodd;fill:#FF9800;} .st68{fill-rule:evenodd;clip-rule:evenodd;fill:#FF5722;} .st69{fill-rule:evenodd;clip-rule:evenodd;fill:#795548;} .st70{fill-rule:evenodd;clip-rule:evenodd;fill:#9E9E9E;} .st71{fill-rule:evenodd;clip-rule:evenodd;fill:#607D8B;} .st72{fill-rule:evenodd;clip-rule:evenodd;} .st73{opacity:0.5;clip-path:url(#SVGID_11_);} .st74{fill:none;stroke:#E34026;stroke-width:3;stroke-linecap:round;stroke-miterlimit:10;} .st75{fill:#E34026;} .st76{opacity:0.5;clip-path:url(#SVGID_13_);} .st77{fill:none;stroke:#F44336;stroke-width:4.1915;stroke-miterlimit:10;} .st78{fill:none;stroke:#F44336;stroke-width:1.3972;stroke-miterlimit:10;} .st79{fill:none;stroke:#FFFFFF;stroke-width:10;stroke-miterlimit:10;} .st80{fill:none;stroke:#FFFFFF;stroke-width:6;stroke-linejoin:round;stroke-miterlimit:10;} .st81{opacity:0.5;fill:#5A7A3B;} .st82{fill:#4CAF50;} .st83{fill:#FFFFFF;stroke:#000000;stroke-miterlimit:10;} .st84{fill:#FFFFFF;stroke:#FFC107;stroke-width:2;stroke-miterlimit:10;} .st85{fill:#FFC107;stroke:#FFC107;stroke-width:2;stroke-miterlimit:10;} .st86{fill:none;stroke:#FFFFFF;stroke-width:3;stroke-linecap:round;stroke-miterlimit:10;} .st87{fill:none;stroke:#D0D106;stroke-width:2;stroke-miterlimit:10;} .st88{fill:#FFC107;} .st89{fill:none;stroke:#FFFFFF;stroke-width:6.1;stroke-linecap:round;stroke-miterlimit:10;} .st90{fill:#D6015F;stroke:#E91E63;stroke-width:2;stroke-miterlimit:10;} .st91{fill:none;stroke:#E91E63;stroke-width:2;stroke-miterlimit:10;} .st92{fill:none;stroke:#FFFFFF;stroke-width:7.0187;stroke-miterlimit:10;} .st93{fill:none;stroke:#FFFFFF;stroke-width:5.4987;stroke-miterlimit:10;} .st94{fill:none;stroke:#FFFFFF;stroke-width:4.964;stroke-miterlimit:10;} .st95{fill:none;stroke:#FFFFFF;stroke-width:4.3989;stroke-miterlimit:10;} .st96{fill:none;stroke:#FFFFFF;stroke-width:4.1195;stroke-miterlimit:10;} .st97{fill-rule:evenodd;clip-rule:evenodd;fill:#AAAAAA;} .st98{fill:#3A3A3A;} .st99{fill-rule:evenodd;clip-rule:evenodd;fill:#EAA813;} .st100{fill-rule:evenodd;clip-rule:evenodd;fill:#3A3A3A;} .st101{fill-rule:evenodd;clip-rule:evenodd;fill:#515151;} .st102{fill:none;stroke:#929497;stroke-width:11.7929;stroke-miterlimit:10;} .st103{fill:#929497;} .st104{fill:none;stroke:#929497;stroke-width:10.8495;stroke-miterlimit:10;} .st105{fill:none;stroke:#929497;stroke-width:20;stroke-miterlimit:10;} .st106{fill:#224099;} .st107{fill:#F1F1F2;} .st108{fill:#FFFFFF;stroke:#929497;stroke-width:13.2081;stroke-miterlimit:10;} .st109{fill:none;stroke:#929497;stroke-width:36.5581;stroke-miterlimit:10;} .st110{opacity:0.2;fill:none;stroke:#FFFFFF;stroke-width:1.2623;stroke-miterlimit:10;} .st111{fill:none;stroke:#FFFFFF;stroke-width:8;stroke-miterlimit:10;} .st112{opacity:0.2;fill:none;stroke:#FFFFFF;stroke-width:3.4897;stroke-miterlimit:10;} .st113{fill:none;stroke:#FFFFFF;stroke-width:13;stroke-linejoin:round;stroke-miterlimit:10;} .st114{fill-rule:evenodd;clip-rule:evenodd;fill:none;stroke:#FFFFFF;stroke-width:13;stroke-linecap:round;stroke-linejoin:round;stroke-miterlimit:10;} .st115{fill-rule:evenodd;clip-rule:evenodd;fill:none;stroke:#FFFFFF;stroke-width:13;stroke-linejoin:round;stroke-miterlimit:10;} .st116{fill:#D6015F;} .st117{opacity:0.5;clip-path:url(#SVGID_15_);} .st118{opacity:0.5;clip-path:url(#SVGID_17_);} .st119{fill:#F44336;}</style><path d="M.1 2h886.3v882.5H.1V2zm0 0" class="st30"/><path d="M.1 2.5h886.3l-.5-.5v882.5l.5-.5H.1l.5.5V2l-.5.5zm0-1h-.5V885h887.3V1.5H.1zm0 0" class="st30"/><path d="M.1 0h886.3v882.5H.1V0zm0 0" class="st58"/><path d="M254.2 753.5h3.8v26c0 4.4.7 7.7 2.2 9.8 1.5 2.1 3.9 3.1 7.2 3.1 2.5 0 4.7-.7 6.7-2s4.2-3.5 6.6-6.4v-30.5h3.8v41.4h-3.2l-.4-6.9h-.2c-2 2.4-4.1 4.3-6.4 5.8-2.2 1.4-4.8 2.2-7.7 2.2-4.3 0-7.5-1.3-9.5-3.9-2-2.6-3-6.6-3-12v-26.6zm43.3 33.8c1.8 1.5 3.7 2.7 5.7 3.8 2 1 4.5 1.5 7.5 1.5 3.3 0 5.7-.8 7.4-2.5 1.6-1.6 2.5-3.5 2.5-5.7 0-1.3-.3-2.4-.9-3.4-.6-1-1.4-1.8-2.4-2.5s-2.1-1.3-3.2-1.8l-3.6-1.5c-1.6-.6-3.1-1.2-4.7-1.8-1.6-.6-3-1.4-4.3-2.3-1.3-.9-2.3-2-3.1-3.2-.8-1.2-1.2-2.7-1.2-4.5 0-1.5.3-2.9.9-4.3.6-1.3 1.4-2.5 2.6-3.5 1.1-1 2.5-1.8 4.2-2.4 1.6-.6 3.5-.9 5.7-.9s4.3.4 6.4 1.2c2.1.8 3.9 1.8 5.4 3.1l-2.1 2.7c-1.4-1-2.8-1.9-4.4-2.6-1.6-.7-3.4-1.1-5.5-1.1-1.6 0-3 .2-4.1.6-1.2.4-2.1 1-2.9 1.7-.8.7-1.3 1.5-1.7 2.4-.4.9-.6 1.8-.6 2.8 0 1.2.3 2.2.8 3.1.5.8 1.3 1.6 2.2 2.2.9.6 2 1.2 3.1 1.7 1.2.5 2.4 1 3.6 1.4 1.6.6 3.2 1.3 4.8 1.9 1.6.6 3.1 1.4 4.4 2.3 1.3.9 2.3 2.1 3.1 3.4.8 1.4 1.2 3 1.2 5 0 1.6-.3 3-.9 4.4-.6 1.4-1.5 2.6-2.7 3.7-1.2 1.1-2.7 1.9-4.4 2.5-1.7.6-3.7.9-5.9.9-3.1 0-5.9-.6-8.5-1.7s-4.8-2.5-6.6-4l2.2-2.6zm34.3-13.1c0-3.4.5-6.4 1.5-9.1 1-2.7 2.4-5 4.1-6.9 1.7-1.9 3.6-3.3 5.8-4.3 2.2-1 4.4-1.5 6.7-1.5 4.9 0 8.8 1.7 11.6 5s4.2 8 4.2 14.1v1.6s-.1 1-.2 1.6h-29.8c.1 2.6.5 5 1.2 7.2s1.8 4.1 3.1 5.7c1.3 1.6 3 2.8 4.9 3.7 1.9.9 4 1.3 6.4 1.3 2.2 0 4.3-.3 6.1-1 1.8-.7 3.5-1.6 5-2.7l1.6 2.9c-1.7 1-3.5 1.9-5.5 2.8-2 .9-4.5 1.3-7.5 1.3-2.6 0-5.1-.5-7.5-1.5-2.3-1-4.4-2.4-6.1-4.3-1.7-1.9-3.1-4.1-4.1-6.8-.9-2.6-1.5-5.7-1.5-9.1zm30.3-2.5c0-5.3-1.1-9.4-3.3-12-2.2-2.7-5.1-4-8.9-4-1.8 0-3.5.4-5.1 1.1-1.6.7-3.1 1.8-4.4 3.2-1.3 1.4-2.4 3.1-3.2 5-.8 2-1.4 4.2-1.6 6.7h26.5zm14.8-18.2h3.3l.3 7.7h.3c1.4-2.6 3.1-4.7 5-6.3 2-1.6 4.2-2.4 6.7-2.4.8 0 1.5.1 2.2.2.6.1 1.3.3 2 .7l-.9 3.4c-.7-.3-1.3-.5-1.8-.6-.5-.1-1.2-.1-2-.1-1.8 0-3.8.8-5.8 2.4-2 1.6-3.9 4.3-5.5 8.2v28.2h-3.8v-41.4zm41.1 49.8c0-1.8.5-3.6 1.6-5.3 1.1-1.7 2.6-3.3 4.5-4.7v-.3c-1-.6-1.9-1.5-2.6-2.6s-1-2.4-1-4.1c0-1.8.5-3.4 1.6-4.7 1-1.3 2-2.3 2.9-2.9v-.3c-1.3-1.1-2.5-2.7-3.6-4.7s-1.6-4.2-1.6-6.7c0-2.1.4-4.1 1.1-5.9.7-1.8 1.8-3.3 3.1-4.6 1.3-1.3 2.9-2.3 4.7-3 1.8-.7 3.7-1.1 5.7-1.1 1.1 0 2.2.1 3.1.3.9.2 1.7.4 2.3.7h14v3.2h-9.7c1.3 1.2 2.4 2.6 3.3 4.4.9 1.8 1.3 3.8 1.3 6 0 2.1-.4 4.1-1.1 5.9-.7 1.8-1.8 3.3-3.1 4.6s-2.8 2.3-4.6 3c-1.8.7-3.6 1.1-5.6 1.1-1.2 0-2.3-.1-3.6-.4-1.2-.3-2.3-.7-3.3-1.3-.9.7-1.7 1.6-2.4 2.5-.7.9-1 2.1-1 3.4 0 1.5.5 2.8 1.6 3.8 1.1 1.1 3.2 1.6 6.3 1.6h8.9c4.7 0 8.1.8 10.3 2.3 2.2 1.5 3.3 3.9 3.3 7.2 0 1.8-.5 3.5-1.4 5.2-.9 1.7-2.2 3.2-3.9 4.5-1.7 1.3-3.8 2.3-6.2 3.1s-5.1 1.2-8.1 1.2c-5.2 0-9.4-1-12.4-3.1-2.9-2-4.4-4.8-4.4-8.3zm3.6-.4c0 2.6 1.2 4.7 3.6 6.3 2.4 1.6 5.8 2.4 10.2 2.4 2.3 0 4.4-.3 6.3-.9 1.9-.6 3.5-1.4 4.8-2.4 1.3-1 2.3-2.1 3.1-3.3.7-1.2 1.1-2.5 1.1-3.8 0-2.3-.8-3.9-2.5-4.9-1.6-.9-4-1.4-7.1-1.4h-8.9c-.5 0-1.2 0-2.1-.1-.9-.1-2-.3-3.1-.6-1.9 1.3-3.3 2.7-4.1 4.2-.9 1.6-1.3 3.1-1.3 4.5zm12.7-24.3c1.4 0 2.8-.3 4.1-.8 1.3-.5 2.4-1.3 3.4-2.4 1-1 1.8-2.3 2.3-3.7.6-1.4.9-3 .9-4.7 0-1.7-.3-3.3-.9-4.7-.6-1.4-1.3-2.6-2.3-3.6-.9-1-2.1-1.7-3.4-2.3-1.3-.5-2.7-.8-4.1-.8-1.5 0-2.9.3-4.2.8-1.3.5-2.4 1.3-3.4 2.3-1 1-1.8 2.2-2.3 3.6-.6 1.4-.9 3-.9 4.8 0 1.7.3 3.3.9 4.7.6 1.4 1.4 2.7 2.4 3.7s2.2 1.8 3.4 2.4c1.3.5 2.7.7 4.1.7zm28.5-25.1h3.8v26c0 4.4.7 7.7 2.2 9.8 1.5 2.1 3.9 3.1 7.2 3.1 2.5 0 4.7-.7 6.7-2s4.2-3.5 6.6-6.4v-30.5h3.8v41.4h-3.2l-.4-6.9h-.2c-2 2.4-4.1 4.3-6.4 5.8-2.2 1.4-4.8 2.2-7.7 2.2-4.3 0-7.5-1.3-9.5-3.9-2-2.6-3-6.6-3-12v-26.6zm48.2-10c-1 0-1.8-.3-2.5-.9-.7-.6-1-1.4-1-2.4 0-1.1.3-1.9 1-2.5.7-.6 1.5-.9 2.5-.9s1.8.3 2.5.9c.7.6 1 1.5 1 2.5s-.3 1.8-1 2.4c-.8.6-1.6.9-2.5.9zm-2 10h3.8v41.4H509v-41.4zm16.3 20.7c0-3.3.5-6.3 1.5-9s2.3-5 4-6.9c1.7-1.9 3.6-3.3 5.9-4.4 2.2-1 4.6-1.5 7-1.5 2.5 0 4.7.4 6.6 1.3 1.9.9 3.8 2.1 5.9 3.8l-.2-7.6v-17.1h3.8v62h-3.3l-.3-5.3h-.3c-1.7 1.7-3.6 3.1-5.9 4.4-2.3 1.3-4.8 1.9-7.5 1.9-5.2 0-9.4-1.9-12.5-5.6-3.2-3.6-4.7-8.9-4.7-16zm4 0c0 2.8.3 5.3.9 7.5s1.5 4.2 2.6 5.7c1.1 1.6 2.6 2.8 4.3 3.7 1.7.9 3.6 1.3 5.8 1.3 2.3 0 4.5-.6 6.6-1.8 2.1-1.2 4.2-2.9 6.4-5V761c-2.2-2-4.2-3.3-6.2-4.1-1.9-.8-3.9-1.2-5.9-1.2-2.1 0-4 .5-5.8 1.4-1.8.9-3.3 2.2-4.6 3.9-1.3 1.6-2.3 3.6-3.1 5.9-.6 2.3-1 4.8-1 7.3zm42.8 0c0-3.4.5-6.4 1.5-9.1 1-2.7 2.4-5 4.1-6.9 1.7-1.9 3.6-3.3 5.8-4.3 2.2-1 4.4-1.5 6.7-1.5 4.9 0 8.8 1.7 11.6 5 2.8 3.3 4.2 8 4.2 14.1v1.6s-.1 1-.2 1.6H576c.1 2.6.5 5 1.2 7.2s1.8 4.1 3.1 5.7c1.3 1.6 3 2.8 4.9 3.7 1.9.9 4 1.3 6.4 1.3 2.2 0 4.3-.3 6.1-1 1.8-.7 3.5-1.6 5-2.7l1.6 2.9c-1.7 1-3.5 1.9-5.5 2.8-2 .9-4.5 1.3-7.5 1.3-2.6 0-5.1-.5-7.5-1.5-2.3-1-4.4-2.4-6.1-4.3-1.7-1.9-3.1-4.1-4.1-6.8s-1.5-5.7-1.5-9.1zm30.3-2.5c0-5.3-1.1-9.4-3.3-12-2.2-2.7-5.1-4-8.9-4-1.8 0-3.5.4-5.1 1.1-1.6.7-3.1 1.8-4.4 3.2-1.3 1.4-2.4 3.1-3.2 5s-1.4 4.2-1.6 6.7h26.5zM426.2 376.8c-7.3 0-13.2-2.1-17.9-6.2-4.7-4.2-7-9.5-7-16.1 0-6.6 2.3-11.9 7-16.1 4.7-4.2 10.6-6.2 17.9-6.2 7.3 0 13.2 2.1 17.9 6.2 4.7 4.2 7 9.5 7 16.1 0 6.6-2.3 11.9-7 16.1-4.7 4.1-10.6 6.2-17.9 6.2zm-22.3 16.1h44.7v129.8h-44.7V392.9z" class="st5"/><path d="M598.7 196.7H348.5c-36.2 0-76.7 32-76.7 74.7v317c0 8.9 7.2 16.2 16.2 16.2 0 0 239.3.1 258.5.1 8.9 0 16.2-7.3 16.2-16.2 0-14.6 14.4-36.7 36-36.7 8.9 0 16.2-7.3 16.2-16.2V213c0-9-7.2-16.3-16.2-16.3z" class="st79"/><path d="M334.7 229.3h242.5c5.4 0 9.8 4.4 9.8 9.8v317.3" class="st80"/><path d="M271.8 263.4h277.8c6.2 0 11.2 5 11.2 11.2v322.7" class="st79"/></svg>

<svg id="Layer_1" data-name="Layer 1" xmlns="http://www.w3.org/2000/svg" viewBox="0 0 886.5 882.4"><title>userguide</title><path d="M0.1,2H886.4V884.5H0.1V2Z" style="fill:none"/><path d="M0.1,2.5H886.4L885.9,2V884.5l0.5-.5H0.1l0.5,0.5V2Zm0-1H-0.4V885H886.9V1.5H0.1Z" style="fill:none"/><path d="M426.2,376.8c-7.3,0-13.2-2.1-17.9-6.2a22,22,0,0,1,0-32.2c4.7-4.2,10.6-6.2,17.9-6.2s13.2,2.1,17.9,6.2a22,22,0,0,1,0,32.2C439.4,374.7,433.5,376.8,426.2,376.8Zm-22.3,16.1h44.7V522.7H403.9V392.9Z" style="fill:#fff"/><path d="M598.7,196.7H348.5c-36.2,0-76.7,32-76.7,74.7v317A16.2,16.2,0,0,0,288,604.6l258.5,0.1a16.26,16.26,0,0,0,16.2-16.2c0-14.6,14.4-36.7,36-36.7a16.26,16.26,0,0,0,16.2-16.2V213A16.22,16.22,0,0,0,598.7,196.7Z" style="fill:none;stroke:#fff;stroke-miterlimit:10;stroke-width:10px"/><path d="M334.7,229.3H577.2a9.82,9.82,0,0,1,9.8,9.8V556.4" style="fill:none;stroke:#fff;stroke-linejoin:round;stroke-width:6px"/><path d="M271.8,263.4H549.6a11.18,11.18,0,0,1,11.2,11.2V597.3" style="fill:none;stroke:#fff;stroke-miterlimit:10;stroke-width:10px"/></svg>
